X: 1
T: The Compliment
T: 8 x 32S 2C (Roy Goldring, 12 More Social Dances)
P: Dumgoyne
C: Alasdair Heron
C: Arr. T. Traub 8-25-2004
M: 4/4
L: 1/8
K: Em
R: strathspey
|: B,|"Em"E>GB>e g>e B<G|"D"D>FA>c d>A F<D|"Em"E>GB>e g>eB>A|1"Em"G>E "D"F<D "Em"B,<EE>B :|2 "Em"(3GFE "D"(3FED "Em"B,<E E>f|
"Em"g>e B<G E>GB>e|"D"f>d A<F D>FA>f|"Em"g>e B<G E>GB>c|"B7"(3BAG F>B "Em"G<EE>f|
"Em"(3gfe B>G E>GB>e|"D"(3fed A>F D>F A<F|"Em"E>GB>e g>eB>A|"Em"(3GAB "B7"F>B G<E E |]
